images/brand-images/icons/icon-dribbble.svg

<?xml version="1.0" encoding="UTF-8" standalone="no"?>
<svg width="18px" height="17px" viewBox="0 0 18 17" version="1.1" xmlns="http://www.w3.org/2000/svg" xmlns:xlink="http://www.w3.org/1999/xlink" xmlns:sketch="http://www.bohemiancoding.com/sketch/ns">
    <!-- Generator: Sketch 3.3.3 (12072) - http://www.bohemiancoding.com/sketch -->
    <title>social-network34</title>
    <desc>Created with Sketch.</desc>
    <defs></defs>
    <g id="V2" stroke="none" stroke-width="1" fill="none" fill-rule="evenodd" sketch:type="MSPage">
        <g id="Landing" sketch:type="MSArtboardGroup" transform="translate(-1022.000000, -4995.000000)" fill="#C7D7DE">
            <g id="Group" sketch:type="MSLayerGroup" transform="translate(75.000000, 4883.013428)">
                <g id="Shape-Copy-+-social-network34-+-github17" transform="translate(892.500000, 111.013428)" sketch:type="MSShapeGroup">
                    <g id="social-network34" transform="translate(55.143098, 1.000000)">
                        <path d="M8.2205193,0 C3.68793047,0 0,3.58763328 0,7.99695354 C0,12.4062738 3.68793047,15.9939071 8.2205193,15.9939071 C12.7531081,15.9939071 16.4410386,12.4062738 16.4410386,7.99695354 C16.4410386,3.58763328 12.7531081,0 8.2205193,0 L8.2205193,0 Z M13.6553101,3.6875952 C14.6335519,4.85015232 15.2244017,6.33058835 15.2398152,7.94297411 C15.0075856,7.89499238 12.6883715,7.43716679 10.3506614,7.72305788 L10.1996093,7.37019231 C10.0536951,7.03731912 9.89750524,6.70644516 9.73412242,6.38056931 C12.330779,5.34996192 13.5073408,3.88252094 13.6553101,3.6875952 L13.6553101,3.6875952 Z M8.2205193,1.17655179 C10.004372,1.17655179 11.6351175,1.82730388 12.8743608,2.89789604 C12.7489979,3.0728294 11.6926611,4.45430312 9.19567841,5.36495621 C8.0448057,3.30873953 6.76959765,1.61938309 6.57538788,1.36647944 C7.10355624,1.24252666 7.65433104,1.17655179 8.2205193,1.17655179 L8.2205193,1.17655179 Z M5.23544323,1.82530465 C5.42040492,2.07221059 6.67506167,3.76356626 7.83826516,5.7757997 C4.55416769,6.62447639 1.66157246,6.61248096 1.3471376,6.60848248 C1.80234886,4.48829018 3.27073912,2.72696116 5.23544323,1.82530465 L5.23544323,1.82530465 Z M1.19814069,8.00694973 L1.20122338,7.79802932 C1.50846529,7.80502666 4.91176028,7.84701066 8.4167842,6.82639947 C8.61921449,7.20925362 8.81034156,7.59810548 8.98708273,7.98595773 L8.7096402,8.06692688 C5.08952901,9.20549315 3.1628448,12.3103104 3.00254468,12.5742098 C1.88249892,11.363671 1.19916825,9.76228104 1.19814069,8.00694973 L1.19814069,8.00694973 Z M8.21949174,14.8373477 C6.59696674,14.8373477 5.10083223,14.2995526 3.90988449,13.3958968 C4.03627498,13.145992 5.45842482,10.4730103 9.41865999,9.13052171 L9.46490041,9.11552742 C10.4513627,11.6065784 10.8572509,13.6957826 10.9630901,14.2955541 C10.1215144,14.6444212 9.19362328,14.8383473 8.21949174,14.8373477 L8.21949174,14.8373477 Z M12.1437621,13.6697925 C12.0718326,13.2539509 11.6967714,11.2547125 10.7801835,8.79964775 C12.9802,8.45677837 14.9130496,9.01856436 15.1534998,9.09253618 C14.8390649,10.9918126 13.7200467,12.634187 12.1437621,13.6697925 L12.1437621,13.6697925 Z" id="Shape"></path>
                    </g>
                </g>
            </g>
        </g>
    </g>
</svg>

<svg width="18" height="17" viewBox="0 0 18 17" xmlns="http://www.w3.org/2000/svg"><title>social-network34</title><desc>Created with Sketch.</desc><path d="M8.864.026C4.33.026.644 3.614.644 8.023c0 4.41 3.687 7.997 8.22 7.997 4.532 0 8.22-3.588 8.22-7.997 0-4.41-3.688-7.997-8.22-7.997zm4.79 3.662c.98 1.162 1.57 2.643 1.586 4.255-.232-.048-2.552-.506-4.89-.22l-.15-.353c-.146-.333-.302-.664-.466-.99 2.597-1.03 3.773-2.497 3.92-2.692zm-5.433-2.51c1.784 0 3.415.65 4.654 1.72-.125.175-1.18 1.556-3.678 2.467-1.15-2.056-2.426-3.746-2.62-4 .528-.122 1.078-.188 1.645-.188zm-2.985.647c.185.247 1.44 1.94 2.603 3.95-3.284.85-6.176.837-6.49.833.454-2.12 1.923-3.88 3.887-4.783zM1.198 8.007l.003-.21c.308.008 3.712.05 7.217-.97.202.382.393.77.57 1.16l-.277.08c-3.62 1.138-5.547 4.243-5.707 4.507-1.12-1.21-1.804-2.812-1.805-4.567zm7.02 6.83c-1.62 0-3.117-.537-4.308-1.44.126-.25 1.548-2.924 5.51-4.266l.045-.014c.986 2.49 1.392 4.58 1.498 5.18-.84.348-1.77.542-2.744.54zm3.926-1.167c-.072-.416-.447-2.415-1.364-4.87 2.2-.343 4.133.22 4.373.293-.314 1.9-1.433 3.54-3.01 4.577z" fill="#C7D7DE"/></svg>
